X: 20749
T: Johnny Hand's Delight
R: reel
M: 4/4
K: Adorian
BA|G3 B dBBg|(3dcB ge dcBA|G3 B dBBg|aA A/A/A AcBA|G3 B dBBg|(3dcB ge dega|bagf efgb|aA A/A/A A2||
fa|g3 a bagf|gG G/G/G G2 ga|g3 a bagf|aA A/A/A A2 ga|g3 a bagf|gfed efga|bagf efgb|aA A/A/A A2||
dc|BG G/G/G dG G/G/G|eG G/G/G dG G/G/G|BG G/G/G dG G/G/G|eA A/A/A A2 dc|BG G/G/G dG G/G/G|dGeG dega|bagf efgb|aA A/A/A A2||

